X:172
T:The Reel of Mullinvat                                                                             
M:4/4                                                                                               
L:1/8                                                                                               
K:Em                                                                                                
G2 fg edBA|GBAG EDB,D|GE E2 GABd|eBBA (3Bcd ef|                                                     
g2 fg edBA|GBAG EDB,D|GE E2 GABd|egfg e3 f:|                                                        
gB B2 gabg|afde fgaf|gB B2 gabg|agfg e3 f|                                                          
g2 gf gabg|afde fgaf|bdaf gfed|(3Bcd gf e3 f :|
